source/img/twitter.svg

<svg width="20" height="17" viewBox="0 0 20 17" fill="none" xmlns="http://www.w3.org/2000/svg">
<path d="M7.46134 17C6.59648 17 5.70629 16.9273 4.81075 16.7815C3.23347 16.5244 1.6368 15.6676 1.18499 15.411L0 14.7381L1.28295 14.3C2.68537 13.8211 3.53849 13.5239 4.59454 13.0587C3.53711 12.5268 2.72215 11.5701 2.32985 10.3334L2.03139 9.39242L2.27614 9.43125C2.04405 9.18831 1.8608 8.94173 1.71874 8.71749C1.21352 7.92054 0.946038 6.94673 1.00295 6.11222L1.0591 5.29086L1.53258 5.48134C1.33285 5.0896 1.1885 4.67124 1.10366 4.23275C0.896905 3.16338 1.06994 2.0273 1.59102 1.03384L2.00346 0.247509L2.55506 0.935592C4.29959 3.11204 6.5092 4.40311 9.13171 4.78106C9.02459 4.01422 9.10485 3.27415 9.3705 2.61079C9.6798 1.8384 10.23 1.18344 10.9612 0.716584C11.7733 0.198224 12.7581 -0.0529529 13.7342 0.00932637C14.7698 0.075409 15.71 0.478402 16.4568 1.17552C16.8215 1.07711 17.0902 0.97204 17.4533 0.83005C17.6718 0.744634 17.9196 0.647649 18.2297 0.536719L19.3723 0.127863L18.6272 2.33791C18.6763 2.33363 18.727 2.32998 18.7799 2.32761L20 2.27024L19.2789 3.29381C19.2375 3.35244 19.227 3.36908 19.2123 3.39206C19.1542 3.48302 19.0819 3.59617 18.0921 4.96885C17.8443 5.31257 17.7205 5.76025 17.7435 6.22965C17.8313 8.0134 17.6206 9.62727 17.1169 11.0263C16.6405 12.3498 15.9023 13.4854 14.923 14.4015C13.7111 15.5349 12.1659 16.311 10.33 16.7078C9.4294 16.9024 8.46231 17 7.46134 17Z" fill="#F7931A"/>
</svg>

<svg width="20" height="17" fill="none" xmlns="http://www.w3.org/2000/svg"><path d="M7.461 17c-.865 0-1.755-.073-2.65-.218-1.578-.258-3.174-1.114-3.626-1.371L0 14.738l1.283-.438c1.402-.479 2.255-.776 3.312-1.241-1.058-.532-1.873-1.489-2.265-2.726l-.299-.94.245.038a4.594 4.594 0 0 1-.557-.714c-.505-.796-.773-1.77-.716-2.605l.056-.821.474.19c-.2-.391-.345-.81-.43-1.248a4.912 4.912 0 0 1 .488-3.2l.412-.785.552.688C4.3 3.112 6.51 4.403 9.132 4.78c-.107-.767-.027-1.507.239-2.17a4.013 4.013 0 0 1 1.59-1.894 4.64 4.64 0 0 1 2.773-.708 4.345 4.345 0 0 1 2.723 1.167c.364-.099.633-.204.996-.346.219-.085.467-.182.777-.293l1.142-.41-.745 2.21.153-.01L20 2.27l-.721 1.024c-.041.058-.052.075-.067.098-.058.091-.13.204-1.12 1.577a1.99 1.99 0 0 0-.348 1.26c.087 1.784-.123 3.398-.627 4.797-.477 1.324-1.215 2.46-2.194 3.376-1.212 1.133-2.757 1.909-4.593 2.306-.9.194-1.868.292-2.869.292z" fill="#F7931A"/></svg>
